!!!!SEGMENT: pl-sa--237-a-vi-41--001_fils-anton--symfonia-in-d-allegro.krn
!!!id: 17xx:605
!!!COM: Fils, Anton
!!!COM-rism: pe30001067
!!!CDT: <1733/09/22-<1760/03/14
!!!CNT: German
!!!OTL: Symfonia in D – Allegro
!!!PDT:
!!!SMS-siglum: PL-SA
!!!SMS-shelfmark: 237/A VI 41
!!!NIFC-rismID: 1001035310
!!!URL-scan: http://bc.bdsandomierz.pl/dlibra/publication/1590/edition/1558/content
!!!ONB-nifc: UWAGA: części Symfonii: Allegro, Andante, Menuet, Presto
!!!SMS-variant:
!!!SMS-altvar:
**kern	**dynam	**kern	**dynam	**kern	**dynam	**kern	**kern	**dynam
*part5	*part5	*part4	*part4	*part3	*part3	*part2	*part1	*part1
*staff5	*	*staff4	*	*staff3	*	*staff2	*staff1	*
*I"Baſso	*	*I"Violino Secundo	*	*I"Violino Primo	*	*I"Flauto Secundo	*I"Flauto Primo	*
*I'B	*	*I'Vn II	*	*I'Vn I	*	*I'Fl II	*I'Fl I	*
*clefF4	*	*clefG2	*	*clefG2	*	*clefG2	*clefG2	*
*k[f#c#]	*	*k[f#c#]	*	*k[f#c#]	*	*k[f#c#]	*k[f#c#]	*
*D:	*	*D:	*	*D:	*	*D:	*D:	*
*M4/4	*	*M4/4	*	*M4/4	*	*M4/4	*M4/4	*
*met(c)	*	*met(c)	*	*met(c)	*	*met(c)	*met(c)	*
=1	=1	=1	=1	=1	=1	=1	=1	=1
!	!	!LO:TX:a:B:t=Allo Assai	!	!LO:TX:a:B:t=Allo&colon; Assai	!	!LO:TX:a:B:t=Allo	!LO:TX:a:B:t=Allo	!
4D\	.	4d/ 4a/ 4ff#/	.	4d/ 4a/ 4ff#/	.	4dd\	4dd\	.
8r	.	8r	.	8r	.	8r	8r	.
16A\LL	.	16a/LL	.	16a/LL	.	16aa\LL	16aa\LL	.
16G\JJ	.	16g/JJ	.	16g/JJ	.	16gg\JJ	16gg\JJ	.
8F#\L	.	8f#/L	.	8f#/L	.	8ff#\L	8ff#\L	.
8D\	.	8d/	.	8d/	.	8dd\	8dd\	.
8F#\	.	8f#/	.	8f#/	.	8ff#\	8ff#\	.
8A\J	.	8a/J	.	8a/J	.	8aa\J	8aa\J	.
=2	=2	=2	=2	=2	=2	=2	=2	=2
4d\	.	4d/ 4a/ 4ff#/	.	4d/ 4a/ 4ff#/	.	4dd\	4ddd\	.
8r	.	8r	.	8r	.	8r	8r	.
16A\LL	.	16a/LL	.	16a/LL	.	16aa\LL	16aa\LL	.
16G\JJ	.	16g/JJ	.	16g/JJ	.	16gg\JJ	16gg\JJ	.
8F#\L	.	8f#/L	.	8f#/L	.	8ff#\L	8ff#\L	.
8D\	.	8d/	.	8d/	.	8dd\	8dd\	.
8F#\	.	8f#/	.	8f#/	.	8ff#\	8ff#\	.
8A\J	.	8a/J	.	8a/J	.	8aa\J	8aa\J	.
=3	=3	=3	=3	=3	=3	=3	=3	=3
!:global	!LO:DY:a	!	!	!	!	!	!	!LO:DY:a
8D\L	p	8g/	.	8b\	.	4gg\	1gg\	p
!	!	!	!	!	!LO:DY:a	!	!	!
8D\	.	8r	.	8r	p	.	.	.
8D\	.	8b/	.	8gg\	.	2b/	.	.
8D\J	.	8r	.	8r	.	.	.	.
8D\L	.	8g/	.	8ee\	.	.	.	.
8D\	.	8r	.	8r	.	.	.	.
8D\	.	8e/	.	8cc#\	.	4cc#\	.	.
8D\J	.	8r	.	8r	.	.	.	.
=4	=4	=4	=4	=4	=4	=4	=4	=4
8D\L	.	8f#/	.	8dd\	.	1dd\	1ff#\	.
8D\	.	8r	.	8r	.	.	.	.
8D\	.	8a/	.	8ff#\	.	.	.	.
8D\J	.	8r	.	8r	.	.	.	.
8D\L	.	8ff#\	.	8aa\	.	.	.	.
8D\	.	8r	.	8r	.	.	.	.
8D\	.	4r	.	4r	.	.	.	.
8D\J	.	.	.	.	.	.	.	.
=5	=5	=5	=5	=5	=5	=5	=5	=5
*tremolo	*	*	*	*	*	*	*	*
!	!	!	!	!	!	!	!LO:TX:t=P:problem:takty 5-6 zapisane powtórką	!
8D/L	.	8g/	.	8b/	.	4r	1ggyy\	.
8D/	.	8r	.	8r	.	.	.	.
8D/	.	8b/	.	8gg\	.	2b/	.	.
8D/J	.	8r	.	8r	.	.	.	.
8D/L	.	8g/	.	8ee\	.	.	.	.
8D/	.	8r	.	8r	.	.	.	.
8D/	.	8e/	.	8cc#\	.	4cc#\	.	.
8D/J	.	8r	.	8r	.	.	.	.
=6	=6	=6	=6	=6	=6	=6	=6	=6
!	!	!	!	!	!	!LO:TX:t=P:problem:półnuta z wymazaną caudą	!	!
8D/L	.	8f#/	.	8dd\	.	1dd\	1ff#yy\	.
8D/	.	8r	.	8r	.	.	.	.
8D/	.	8a/	.	8ff#\	.	.	.	.
8D/J	.	8r	.	8r	.	.	.	.
8D/L	.	8ff#\	.	8aa\	.	.	.	.
!	!	!LO:N:vis=8	!	!	!	!	!	!
8D/	.	4r	.	8r	.	.	.	.
8D/	.	.	.	8r	.	.	.	.
8D/J	.	16r	.	16r	.	.	.	.
.	.	16f#/	.	16a/	.	.	.	.
!	!	!LO:LB:g=original	!	!	!	!	!	!
=7	=7	=7	=7	=7	=7	=7	=7	=7
8D/L	.	8g/	.	8b\	.	1r	1r	.
8D/	.	8r	.	8r	.	.	.	.
8D/	.	8f#/	.	8a/	.	.	.	.
8D/J	.	8r	.	8r	.	.	.	.
!	!	!	!	!LO:LB:g=original	!	!	!	!
8D/L	.	8g/	.	8b\	.	.	.	.
8D/	.	8r	.	8r	.	.	.	.
8D/	.	8e/	.	8cc#\	.	.	.	.
8D/J	.	8r	.	8r	.	.	.	.
=8	=8	=8	=8	=8	=8	=8	=8	=8
8D/L	.	4.f#/	.	4.dd\	.	2r	2r	.
8D/	.	.	.	.	.	.	.	.
8D/	.	.	.	.	.	.	.	.
8D/J	.	16g/LL	.	16ee\LL	.	.	.	.
.	.	16a/JJ	.	16ff#\JJ	.	.	.	.
8D/L	.	4b\	.	4gg\	.	4r	4r	.
8D/	.	.	.	.	.	.	.	.
8D/	.	4b\	.	4gg\	.	4b/	4gg\	.
8D/J	.	.	.	.	.	.	.	.
!LO:LB:g=original	!	!	!	!	!	!	!	!
=9	=9	=9	=9	=9	=9	=9	=9	=9
*Xtremolo	*	*2\right	*	*2\right	*	*	*2\right	*
8D\L	.	(2b\	.	(2gg\	.	(2b/	(2gg\	.
8D\	.	.	.	.	.	.	.	.
8D\	.	.	.	.	.	.	.	.
8D\J	.	.	.	.	.	.	.	.
*tremolo	*	*	*	*	*	*	*	*
8D/L	.	4a/)	.	4ff#\)	.	4a/)	4ff#\)	.
8D/	.	.	.	.	.	.	.	.
!	!	!LO:TX:t=P:problem:po pauzie nadprogramowa kreska taktowa	!	!	!	!	!	!
8D/	.	4r	.	8r	.	4r	4r	.
!	!	!	!	!LO:N:vis=8	!	!	!	!
8D/J	.	.	.	16r	.	.	.	.
.	.	.	.	16a/	.	.	.	.
=10	=10	=10	=10	=10	=10	=10	=10	=10
!	!	!	!	!	!	!LO:TX:a:t=1	!	!
8D/L	.	8g/	.	8b/	.	1r	1r	.
8D/	.	8r	.	8r	.	.	.	.
8D/	.	8a/	.	8cc#\	.	.	.	.
8D/J	.	8r	.	8r	.	.	.	.
8D/L	.	8b\	.	8dd\	.	.	.	.
8D/	.	8r	.	8r	.	.	.	.
8D/	.	8cc#\	.	8ee\	.	.	.	.
8D/J	.	8r	.	8r	.	.	.	.
=11	=11	=11	=11	=11	=11	=11	=11	=11
!	!LO:DY:a	!	!LO:DY:a	!	!	!	!	!
8D/L	f	4d/ 4a/ 4ff#/	f	4d/ 4a/ 4ff#/	.	4dd\	4dd\	.
8D/	.	.	.	.	.	.	.	.
8D/	.	8r	.	8r	.	8r	8r	.
8D/J	.	16a/LL	.	16a/LL	.	16aa\LL	16aa\LL	.
.	.	16g/JJ	.	16g/JJ	f	16gg\JJ	16gg\JJ	.
8D/L	.	8f#/L	.	8f#/L	.	8ff#\L	8ff#\L	.
8D/	.	8d/	.	8d/	.	8dd\	8dd\	.
8D/	.	8f#/	.	8f#/	.	8ff#\	8ff#\	.
8D/J	.	8a/J	.	8a/J	.	8aa\J	8aa\J	.
!	!	!	!	!	!	!LO:LB:g=original	!	!
=12	=12	=12	=12	=12	=12	=12	=12	=12
8D/L	.	4d/ 4a/ 4ff#/	.	4d/ 4a/ 4ff#/	.	4ff#\	4ddd\	.
8D/	.	.	.	.	.	.	.	.
8D/	.	8r	.	8r	.	8r	8r	.
8D/J	.	16a/LL	.	16a/LL	.	16ff#\LL	16aa\LL	.
.	.	16g/JJ	.	16g/JJ	.	16ee\JJ	16gg\JJ	.
8D/L	.	8f#/L	.	8f#/L	.	4dd\	8ff#\L	.
8D/	.	8d/	.	8d/	.	.	8dd\	.
8D/	.	8f#/	.	8f#/	.	8dd\L	8ff#\	.
8D/J	.	8a/J	.	8a/J	.	8ff#\J	8aa\J	.
!	!	!	!	!	!	!	!LO:LB:g=original	!
=13	=13	=13	=13	=13	=13	=13	=13	=13
8D/L	.	16g/LL	.	16g/LL	.	1ee\	1gg\	.
.	.	16e/	.	16e/	.	.	.	.
8D/	.	16f#/	.	16f#/	.	.	.	.
.	.	16g/JJ	.	16g/JJ	.	.	.	.
8D/	.	16a/LL	.	16a/LL	.	.	.	.
.	.	16b\	.	16b\	.	.	.	.
8D/J	.	16cc#\	.	16cc#\	.	.	.	.
.	.	16dd\JJ	.	16dd\JJ	.	.	.	.
!	!	!LO:LB:g=original	!	!	!	!	!	!
8D/L	.	16ee\LL	.	16ee\LL	.	.	.	.
.	.	16dd\	.	16dd\	.	.	.	.
8D/	.	16cc#\	.	16cc#\	.	.	.	.
.	.	16b\JJ	.	16b\JJ	.	.	.	.
8D/	.	16a/LL	.	16a/LL	.	.	.	.
.	.	16g/	.	16g/	.	.	.	.
8D/J	.	16f#/	.	16f#/	.	.	.	.
.	.	16e/JJ	.	16e/JJ	.	.	.	.
!	!	!	!	!LO:LB:g=original	!	!	!	!
=14	=14	=14	=14	=14	=14	=14	=14	=14
*	*	*	*	*	*	*2\right	*	*
8D/L	.	16f#/LL	.	16f#/LL	.	2dd\	2ff#\	.
.	.	16d/	.	16d/	.	.	.	.
8D/	.	16e/	.	16e/	.	.	.	.
.	.	16f#/JJ	.	16f#/JJ	.	.	.	.
8D/	.	16g/LL	.	16g/LL	.	.	.	.
.	.	16a/	.	16a/	.	.	.	.
8D/J	.	16b\	.	16b\	.	.	.	.
.	.	16cc#\JJ	.	16cc#\JJ	.	.	.	.
8D/L	.	16dd\LL	.	16dd\LL	.	2dd\	8ff#\L	.
.	.	16cc#\	.	16cc#\	.	.	.	.
8D/	.	16dd\	.	16dd\	.	.	8dd\	.
.	.	16ee\JJ	.	16ee\JJ	.	.	.	.
8D/	.	16ff#\LL	.	16ff#\LL	.	.	8ff#\	.
.	.	16ee\	.	16ee\	.	.	.	.
8D/J	.	16ff#\	.	16ff#\	.	.	8gg#X\J	.
.	.	16gg#X\JJ	.	16gg#X\JJ	.	.	.	.
=15	=15	=15	=15	=15	=15	=15	=15	=15
*Xtremolo	*	*	*	*	*	*	*	*
8AA/L	.	4aa\	.	4aa\	.	4cc#\	4aa\	.
8AA/	.	.	.	.	.	.	.	.
8AA/	.	8.ee\L	.	8.ee\L	.	8.ee\L	8.ee\L	.
8AA/J	.	.	.	.	.	.	.	.
.	.	16cc#\Jk	.	16cc#\Jk	.	16cc#\Jk	16cc#\Jk	.
8AA/L	.	4a/	.	4a/	.	4a/	4a/	.
8AA/	.	.	.	.	.	.	.	.
8AA/	.	8.e/L	.	8.e/L	.	8.cc#\L	8.cc#\L	.
8AA/J	.	.	.	.	.	.	.	.
.	.	16c#/Jk	.	16c#/Jk	.	16ee\Jk	16ee\Jk	.
=16	=16	=16	=16	=16	=16	=16	=16	=16
8AA/L	.	2A/	.	2A/	.	2cc#\	2aa\	.
8AA/	.	.	.	.	.	.	.	.
8AA/	.	.	.	.	.	.	.	.
8AA/J	.	.	.	.	.	.	.	.
2r	.	2r	.	2r	.	2r	2r	.
=17	=17	=17	=17	=17	=17	=17	=17	=17
.	.	.	.	8qqbb/	p	.	.	.
!	!LO:DY:a	!	!	!	!	!	!	!
4AA/	p	(8A/L	.	8aa\L	.	0r	0r	.
.	.	8c#/)	.	16gg#X\L	.	.	.	.
.	.	.	.	16aa\JJ	.	.	.	.
4r	.	(8A/	.	4ee\	.	.	.	.
.	.	8c#/J)	.	.	.	.	.	.
2r	.	(8A/L	.	4r	.	.	.	.
.	.	8c#/)	.	.	.	.	.	.
.	.	(8A/	.	(8aa\L	.	.	.	.
.	.	8c#/J)	.	8ee\J)	.	.	.	.
=18	=18	=18	=18	=18	=18	=18	=18	=18
4D/	.	(8A/L	.	8ff#\tL	.	.	.	.
.	.	8d/)	.	16ee\L	.	.	.	.
.	.	.	.	16ff#\JJ	.	.	.	.
4r	.	(8A/	.	4dd\	.	.	.	.
.	.	8d/J)	.	.	.	.	.	.
2r	.	(8A/L	.	4r	.	.	.	.
.	.	8d/)	.	.	.	.	.	.
.	.	(8A/	.	(8ff#\L	.	.	.	.
.	.	8d/J)	.	8dd\J)	.	.	.	.
!LO:LB:g=original	!	!	!	!	!	!	!	!
=19	=19	=19	=19	=19	=19	=19	=19	=19
.	.	.	.	8qqbb/	.	.	.	.
4AA/	.	(8A/L	.	8aa\L	.	1r	1r	.
.	.	8c#/)	.	16gg#X\L	.	.	.	.
.	.	.	.	16aa\JJ	.	.	.	.
4r	.	(8A/	.	4ee\	.	.	.	.
.	.	8c#/J)	.	.	.	.	.	.
2r	.	(8A/L	.	4r	.	.	.	.
.	.	8c#/)	.	.	.	.	.	.
.	.	(8A/	.	(8ee\L	.	.	.	.
.	.	8c#/J)	.	8cc#\J)	.	.	.	.
=20	=20	=20	=20	=20	=20	=20	=20	=20
!	!	!	!	!	!	!	!LO:TX:t=P:problem:półnuta z wymazaną caudą	!
.	.	.	.	8qqee/	.	.	.	.
4EE/	.	(8e/L	.	8dd\TL	.	1b\	1dd\	.
.	.	8g#X/)	.	16cc#\L	.	.	.	.
.	.	.	.	16dd\JJ	.	.	.	.
4r	.	(8e/	.	4b\	.	.	.	.
.	.	8g#/J)	.	.	.	.	.	.
2r	.	(8e/L	.	4r	.	.	.	.
.	.	8g#/)	.	.	.	.	.	.
.	.	(8e/	.	(8gg#X\L	.	.	.	.
.	.	8g#/J)	.	8bb\J)	.	.	.	.
!	!	!	!	!LO:LB:g=original	!	!	!	!
=21	=21	=21	=21	=21	=21	=21	=21	=21
!	!	!LO:TX:t=P:problem:takty 21-24 zapisane powtórką	!	!	!	!	!	!
.	.	.	.	8qqbb/	.	.	.	.
4AA/	.	(8A/Lyy	.	8aa\L	.	4a/	4cc#\	.
.	.	8c#/)yy	.	16gg#X\L	.	.	.	.
.	.	.	.	16aa\JJ	.	.	.	.
4r	.	(8A/yy	.	4ee\	.	4r	4r	.
.	.	8c#/J)yy	.	.	.	.	.	.
2r	.	(8A/Lyy	.	4r	.	2r	2r	.
.	.	8c#/)yy	.	.	.	.	.	.
.	.	(8A/yy	.	(8aa\L	.	.	.	.
.	.	8c#/J)yy	.	8ee\J)	.	.	.	.
=22	=22	=22	=22	=22	=22	=22	=22	=22
.	.	.	.	8qqgg/	.	.	.	.
4D\	.	(8A/Lyy	.	8ff#\tL	.	0r	0r	.
.	.	8d/)yy	.	16ee\L	.	.	.	.
.	.	.	.	16ff#\JJ	.	.	.	.
4r	.	(8A/yy	.	4dd\	.	.	.	.
.	.	8d/J)yy	.	.	.	.	.	.
2r	.	(8A/Lyy	.	4r	.	.	.	.
.	.	8d/)yy	.	.	.	.	.	.
.	.	(8A/yy	.	(8ff#\L	.	.	.	.
.	.	8d/J)yy	.	8dd\J)	.	.	.	.
=23	=23	=23	=23	=23	=23	=23	=23	=23
.	.	.	.	8qqbb/	.	.	.	.
4AA/	.	(8A/Lyy	.	8aa\L	.	.	.	.
.	.	8c#/)yy	.	16gg\L	.	.	.	.
.	.	.	.	16aa\JJ	.	.	.	.
4r	.	(8A/yy	.	4ee\	.	.	.	.
.	.	8c#/J)yy	.	.	.	.	.	.
2r	.	(8A/Lyy	.	4r	.	.	.	.
.	.	8c#/)yy	.	.	.	.	.	.
.	.	(8A/yy	.	(8ee\L	.	.	.	.
.	.	8c#/J)yy	.	8cc#\J)	.	.	.	.
=24	=24	=24	=24	=24	=24	=24	=24	=24
.	.	.	.	8qqee/	.	.	.	.
4EE/	.	(8e/Lyy	.	8dd\L	.	1b\	1dd\	.
.	.	8g#X/)yy	.	16cc#\L	.	.	.	.
.	.	.	.	16dd\JJ	.	.	.	.
4r	.	(8e/yy	.	4b\	.	.	.	.
.	.	8g#/J)yy	.	.	.	.	.	.
2r	.	(8e/Lyy	.	4r	.	.	.	.
.	.	8g#/)yy	.	.	.	.	.	.
.	.	(8e/yy	.	(8gg#X\L	.	.	.	.
.	.	8g#/J)yy	.	8bb\J)	.	.	.	.
=25	=25	=25	=25	=25	=25	=25	=25	=25
*	*	*	*	*^	*	*	*	*
*	*	*	*	*	*Xtremolo	*	*	*	*
4AA/	.	16a/LL	.	16aa/LL	16cc#\LL	.	4a/	4cc#\	.
.	.	16e/ 16cc#/	.	16aa/	16cc#\	.	.	.	.
.	.	16e/ 16cc#/	.	16aa/	16cc#\	.	.	.	.
.	.	16e/JJ 16cc#/	.	16aa/JJ	16cc#\JJ	.	.	.	.
*	*	*tremolo	*	*	*	*	*	*	*
*	*	*	*	*tremolo	*tremolo	*	*	*	*
8r	.	16e/ 16cc#/LL	.	16aa/LL	16cc#\LL	.	2cc#\	2aa\	.
.	.	16e/ 16cc#/	.	16aa/	16cc#\	.	.	.	.
16E\LL	.	16e/ 16cc#/	.	16aa/	16cc#\	.	.	.	.
16D\JJ	.	16e/ 16cc#/JJ	.	16aa/JJ	16cc#\JJ	.	.	.	.
8C#/L	.	16e/ 16cc#/LL	.	16aa/LL	16cc#\LL	.	.	.	.
.	.	16e/ 16cc#/	.	16aa/	16cc#\	.	.	.	.
8AA/	.	16e/ 16cc#/	.	16aa/	16cc#\	.	.	.	.
.	.	16e/ 16cc#/JJ	.	16aa/JJ	16cc#\JJ	.	.	.	.
8C#/	.	16e/ 16cc#/LL	.	16aa/LL	16cc#\LL	.	4cc#\	4aa\	.
.	.	16e/ 16cc#/	.	16aa/	16cc#\	.	.	.	.
8E\J	.	16e/ 16cc#/	.	16aa/	16cc#\	.	.	.	.
.	.	16e/ 16cc#/JJ	.	16aa/JJ	16cc#\JJ	.	.	.	.
=26	=26	=26	=26	=26	=26	=26	=26	=26	=26
4A\	.	16e/ 16cc#/LL	.	16aa/LL	16cc#\LL	.	1cc#\	1aa\	.
.	.	16e/ 16cc#/	.	16aa/	16cc#\	.	.	.	.
.	.	16e/ 16cc#/	.	16aa/	16cc#\	.	.	.	.
.	.	16e/ 16cc#/JJ	.	16aa/JJ	16cc#\JJ	.	.	.	.
8r	.	16e/ 16cc#/LL	.	16aa/LL	16cc#\LL	.	.	.	.
.	.	16e/ 16cc#/	.	16aa/	16cc#\	.	.	.	.
16E\LL	.	16e/ 16cc#/	.	16aa/	16cc#\	.	.	.	.
16D\JJ	.	16e/ 16cc#/JJ	.	16aa/JJ	16cc#\JJ	.	.	.	.
8C#/L	.	16e/ 16cc#/LL	.	16aa/LL	16cc#\LL	.	.	.	.
.	.	16e/ 16cc#/	.	16aa/	16cc#\	.	.	.	.
8AA/	.	16e/ 16cc#/	.	16aa/	16cc#\	.	.	.	.
.	.	16e/ 16cc#/JJ	.	16aa/JJ	16cc#\JJ	.	.	.	.
8C#/	.	16e/ 16cc#/LL	.	16aa/LL	16cc#\LL	.	.	.	.
.	.	16e/ 16cc#/	.	16aa/	16cc#\	.	.	.	.
8E\J	.	16e/ 16cc#/	.	16aa/	16cc#\	.	.	.	.
.	.	16e/ 16cc#/JJ	.	16aa/JJ	16cc#\JJ	.	.	.	.
*	*	*	*	*v	*v	*	*	*	*
*	*	*Xtremolo	*	*	*	*	*	*
!LO:LB:g=original	!	!	!	!	!	!	!	!
=27	=27	=27	=27	=27	=27	=27	=27	=27
8A\L	.	16aa\LL	.	16aa\LL	.	2cc#\	2aa\	.
.	.	16gg#X\	.	16gg#X\	.	.	.	.
8A\	.	16ff#\	.	16ff#\	.	.	.	.
.	.	16ee\JJ	.	16ee\JJ	.	.	.	.
8A\	.	16dd\LL	.	16dd\LL	.	.	.	.
.	.	16cc#\	.	16cc#\	.	.	.	.
8A\J	.	16b\	.	16b\	.	.	.	.
.	.	16a\JJ	.	16a\JJ	.	.	.	.
8C#/L	.	16aa\LL	.	16aa\LL	.	2a/	2ee\	.
.	.	16gg#\	.	16gg#\	.	.	.	.
8C#/	.	16ff#\	.	16ff#\	.	.	.	.
.	.	16ee\JJ	.	16ee\JJ	.	.	.	.
8C#/	.	16dd\LL	.	16dd\LL	.	.	.	.
.	.	16cc#\	.	16cc#\	.	.	.	.
8C#/J	.	16b\	.	16b\	.	.	.	.
.	.	16a\JJ	.	16a\JJ	.	.	.	.
!	!	!	!	!LO:LB:g=original	!	!	!	!
=28	=28	=28	=28	=28	=28	=28	=28	=28
*tremolo	*	*	*	*	*	*	*	*
!	!	!	!	!	!	!	!LO:TX:t=P:problem:półnuta z wymazaną caudą	!
8D/L	.	2d/	.	2d/	.	2a/	1ff#\	.
8D/	.	.	.	.	.	.	.	.
8D/	.	.	.	.	.	.	.	.
8D/J	.	.	.	.	.	.	.	.
8D/L	.	2ff#\	.	2ff#\	.	2dd\	.	.
8D/	.	.	.	.	.	.	.	.
8D/	.	.	.	.	.	.	.	.
8D/J	.	.	.	.	.	.	.	.
!	!	!	!	!	!	!LO:LB:g=original	!	!
=29	=29	=29	=29	=29	=29	=29	=29	=29
*2\right	*	*	*	*	*	*	*	*
8E\L	.	8ee\L	.	8ee\L	.	2cc#\	2ee\	.
8E\	.	8cc#\	.	8cc#\	.	.	.	.
8E\	.	8aa\	.	8aa\	.	.	.	.
8E\J	.	8ee\J	.	8ee\J	.	.	.	.
8E\L	.	8ccc#\L	.	8ccc#\L	.	2r	2r	.
8E\	.	8aa\	.	8aa\	.	.	.	.
8E\	.	8ee\	.	8ee\	.	.	.	.
8E\J	.	8cc#\J	.	8cc#\J	.	.	.	.
!	!	!	!	!	!	!	!LO:LB:g=original	!
=30	=30	=30	=30	=30	=30	=30	=30	=30
8EE/L	.	16e/LL	.	2e/	.	2cc#\	2aa\	.
.	.	16a/	.	.	.	.	.	.
8EE/	.	16cc#\	.	.	.	.	.	.
.	.	16a/JJ	.	.	.	.	.	.
8EE/	.	16cc#\LL	.	.	.	.	.	.
.	.	16a/	.	.	.	.	.	.
8EE/J	.	16cc#\	.	.	.	.	.	.
.	.	16a/JJ	.	.	.	.	.	.
!	!	!LO:LB:g=original	!	!	!	!	!	!
8EE/L	.	16e/LL	.	2b\T	.	2b\	2gg#X\	.
.	.	16g#X/	.	.	.	.	.	.
8EE/	.	16b\	.	.	.	.	.	.
.	.	16g#/JJ	.	.	.	.	.	.
8EE/	.	16b\LL	.	.	.	.	.	.
.	.	16g#/	.	.	.	.	.	.
8EE/J	.	16b\	.	.	.	.	.	.
.	.	16g#/JJ	.	.	.	.	.	.
*Xtremolo	*	*	*	*	*	*	*	*
=31	=31	=31	=31	=31	=31	=31	=31	=31
4AA/	.	4A/ 4e/ 4a/	.	4A/ 4e/ 4cc#/ 4aa/	.	4cc#\	4aa\	.
8r	.	8r	.	8r	.	8r	8r	.
16E\LL	.	16e/LL	.	16e/LL	.	16ee\LL	16ee\LL	.
16D\JJ	.	16d/JJ	.	16d/JJ	.	16dd\JJ	16dd\JJ	.
8C#/L	.	8c#/L	.	8c#/L	.	8cc#\L	8cc#\L	.
8AA/	.	8A/	.	8A/	.	8a\	8a/	.
8C#/	.	8c#/	.	8c#/	.	8cc#\	8cc#\	.
8E\J	.	8e/J	.	8e/J	.	8ee\J	8ee\J	.
=32	=32	=32	=32	=32	=32	=32	=32	=32
!	!	!	!	!	!	!	!LO:TX:t=P:problem:takt 32 zapisany powtórką	!
4A\	.	4A/ 4e/ 4a/	.	4A/ 4e/ 4a/	.	4aa\	4aayy\	.
8r	.	8r	.	8r	.	8r	8ryy	.
16E\LL	.	16e/LL	.	16e/LL	.	16ee\LL	16ee\LLyy	.
16D\JJ	.	16d/JJ	.	16d/JJ	.	16dd\JJ	16dd\JJyy	.
8C#/L	.	8c#/L	.	8c#/L	.	8cc#\L	8cc#\Lyy	.
8AA/	.	8A/	.	8A/	.	8a\	8ayy/	.
8C#/	.	8c#/	.	8c#/	.	8cc#\	8cc#yy\	.
8E\J	.	8e/J	.	8e/J	.	8ee\J	8ee\Jyy	.
=33	=33	=33	=33	=33	=33	=33	=33	=33
!	!LO:DY:a	!	!	!	!	!	!	!
8A\L	p	8d/	.	8f#/	p	4dd\	1dd\	.
8A\	.	8r	.	8r	.	.	.	.
8A\	.	8f#/	.	8dd\	.	2f#/	.	.
8A\J	.	8r	.	8r	.	.	.	.
8A\L	.	8d/	.	8b\	.	.	.	.
8A\	.	8r	.	8r	.	.	.	.
8A\	.	8B/	.	8g#X/	.	4g#X/	.	.
8A\J	.	8r	.	8r	.	.	.	.
!LO:LB:g=original	!	!	!	!	!	!	!	!
=34	=34	=34	=34	=34	=34	=34	=34	=34
*tremolo	*	*	*	*	*	*	*	*
8A\L	.	8c#/	.	8a/	.	4a/	4cc#\	.
8A\	.	8r	.	8r	.	.	.	.
8A\	.	8a/	.	8cc#\tL	.	4r	4r	.
8A\J	.	8r	.	16b\L	.	.	.	.
.	.	.	.	16cc#\JJ	.	.	.	.
8A\L	.	4cc#\	.	4ee\	.	2r	4r	.
8A\	.	.	.	.	.	.	.	.
8A\	.	4r	.	4r	.	.	4cc#\	.
8A\J	.	.	.	.	.	.	.	.
=35	=35	=35	=35	=35	=35	=35	=35	=35
*Xtremolo	*	*	*	*	*	*	*	*
8A\L	.	8d/	.	8f#/	.	4r	1dd\	.
8A\	.	8r	.	8r	.	.	.	.
8A\	.	8f#/	.	8dd\	.	2g/	.	.
8A\J	.	8r	.	8r	.	.	.	.
*tremolo	*	*	*	*	*	*	*	*
8A\L	.	8d/	.	8b\	.	.	.	.
8A\	.	8r	.	8r	.	.	.	.
8A\	.	8B/	.	8g#X/	.	4g#X/	.	.
8A\J	.	8r	.	8r	.	.	.	.
!	!	!LO:LB:g=original	!	!LO:LB:g=original	!	!	!	!
=36	=36	=36	=36	=36	=36	=36	=36	=36
8A\L	.	8c#/	.	8a/	.	4a/	4cc#\	.
8A\	.	8r	.	8r	.	.	.	.
8A\	.	8a/	.	8cc#\tL	.	4r	4r	.
8A\J	.	8r	.	16b\L	.	.	.	.
.	.	.	.	16cc#\JJ	.	.	.	.
8A\L	.	4cc#\	.	4ee\	.	2r	2r	.
8A\	.	.	.	.	.	.	.	.
8A\	.	8r	.	8r	.	.	.	.
8A\J	.	16r	.	16r	.	.	.	.
.	.	16c#/	.	16e/	.	.	.	.
=37	=37	=37	=37	=37	=37	=37	=37	=37
8A\L	.	8d/	.	8f#/	.	1r	1r	.
8A\	.	8r	.	8r	.	.	.	.
8A\	.	8c#/	.	8e/	.	.	.	.
8A\J	.	8r	.	8r	.	.	.	.
8A\L	.	8d/	.	8f#/	.	.	.	.
8A\	.	8r	.	8r	.	.	.	.
8A\	.	8B/	.	8g#X/	.	.	.	.
8A\J	.	8r	.	8r	.	.	.	.
=38	=38	=38	=38	=38	=38	=38	=38	=38
8A\L	.	4.c#/	.	4.a/	.	2r	2r	.
8A\	.	.	.	.	.	.	.	.
8A\	.	.	.	.	.	.	.	.
8A\J	.	16d/LL	.	16b/LL	.	.	.	.
.	.	16e/JJ	.	16cc#/JJ	.	.	.	.
8A\L	.	4f#/	.	4dd\	.	4r	4r	.
8A\	.	.	.	.	.	.	.	.
8A\	.	4f#/	.	4dd\	.	4dd\	4ff#\	.
8A\J	.	.	.	.	.	.	.	.
=39	=39	=39	=39	=39	=39	=39	=39	=39
8A\L	.	(2f#/	.	(2dd\	.	(2dd\	2ff#\	.
8A\	.	.	.	.	.	.	.	.
8A\	.	.	.	.	.	.	.	.
8A\J	.	.	.	.	.	.	.	.
8A\L	.	4e/)	.	4cc#\)	.	4cc#\)	4ee\	.
8A\	.	.	.	.	.	.	.	.
8A\	.	8r	.	8r	.	4r	4r	.
8A\J	.	16r	.	16r	.	.	.	.
.	.	16cc#\	.	16ee\	.	.	.	.
=40	=40	=40	=40	=40	=40	=40	=40	=40
8A\L	.	8dd\	.	8ff#\	.	1r	1r	.
8A\	.	8r	.	8r	.	.	.	.
8A\	.	8cc#\	.	8ee\	.	.	.	.
8A\J	.	8r	.	8r	.	.	.	.
8A\L	.	8dd\	.	8ff#\	.	.	.	.
8A\	.	8r	.	8r	.	.	.	.
8A\	.	8b\	.	8gg#X\	.	.	.	.
8A\J	.	8r	.	8r	.	.	.	.
=41	=41	=41	=41	=41	=41	=41	=41	=41
*	*	*tremolo	*	*Xtremolo	*	*	*	*
!	!	!	!	!	!LO:DY:a:t=for	!	!	!
4A\	.	16cc#\LL	.	16aa\LL	f	1cc#\	1aa\	.
.	.	16cc#\	.	16aa\	.	.	.	.
.	.	16cc#\	.	16aa\	.	.	.	.
.	.	16cc#\JJ	.	16aa\JJ	.	.	.	.
*	*	*	*	*tremolo	*	*	*	*
8r	.	16cc#\LL	.	16aa\LL	.	.	.	.
.	.	16cc#\	.	16aa\	.	.	.	.
16E\LL	.	16cc#\	.	16aa\	.	.	.	.
16D\JJ	.	16cc#\JJ	.	16aa\JJ	.	.	.	.
8C#/L	.	16cc#\LL	.	16aa\LL	.	.	.	.
.	.	16cc#\	.	16aa\	.	.	.	.
8AA/	.	16cc#\	.	16aa\	.	.	.	.
.	.	16cc#\JJ	.	16aa\JJ	.	.	.	.
8C#/	.	16cc#\LL	.	16aa\LL	.	.	.	.
.	.	16cc#\	.	16aa\	.	.	.	.
8E\J	.	16cc#\	.	16aa\	.	.	.	.
.	.	16cc#\JJ	.	16aa\JJ	.	.	.	.
!	!	!	!	!	!	!LO:LB:g=original	!	!
=42	=42	=42	=42	=42	=42	=42	=42	=42
!LO:TX:t=P:problem:wysokość nuty niejasna, nad nutą dopisana litera a	!	!	!	!	!	!	!LO:TX:t=P:problem:takt 42 niepotrzebnie zdublowany	!
4A\	.	16cc#\LL	.	16aa\LL	.	1ee\	1ccc#\	.
.	.	16cc#\	.	16aa\	.	.	.	.
.	.	16cc#\	.	16aa\	.	.	.	.
.	.	16cc#\JJ	.	16aa\JJ	.	.	.	.
!	!LO:DY:a	!	!	!	!	!	!	!
8r	f	16cc#\LL	.	16aa\LL	.	.	.	.
.	.	16cc#\	.	16aa\	.	.	.	.
16E\LL	.	16cc#\	.	16aa\	.	.	.	.
16D\JJ	.	16cc#\JJ	.	16aa\JJ	.	.	.	.
!	!	!LO:LB:g=original	!	!	!	!	!	!
8C#/L	.	16cc#\LL	.	16aa\LL	.	.	.	.
.	.	16cc#\	.	16aa\	.	.	.	.
8AA/	.	16cc#\	.	16aa\	.	.	.	.
.	.	16cc#\JJ	.	16aa\JJ	.	.	.	.
8C#/	.	16cc#\LL	.	16aa\LL	.	.	.	.
.	.	16cc#\	.	16aa\	.	.	.	.
8E\J	.	16cc#\	.	16aa\	.	.	.	.
.	.	16cc#\JJ	.	16aa\JJ	.	.	.	.
*	*	*Xtremolo	*	*	*	*	*	*
!LO:LB:g=original	!	!	!	!LO:LB:g=original	!	!	!	!
=43	=43	=43	=43	=43	=43	=43	=43	=43
*Xtremolo	*	*	*	*	*	*	*	*
8G\L	.	8cc#\L	.	16aa\LL	.	(2ee\	2ccc#\	.
.	.	.	.	16aa\	.	.	.	.
8G\	.	8a\	.	16aa\	.	.	.	.
.	.	.	.	16aa\JJ	.	.	.	.
8G\	.	8cc#\	.	16aa\LL	.	.	.	.
.	.	.	.	16aa\	.	.	.	.
8G\J	.	8ee\J	.	16aa\	.	.	.	.
.	.	.	.	16aa\JJ	.	.	.	.
*tremolo	*	*	*	*	*	*	*	*
8F#\L	.	4dd\	.	16aa\LL	.	4ff#\)	4ddd\	.
.	.	.	.	16aa\	.	.	.	.
8F#\	.	.	.	16aa\	.	.	.	.
.	.	.	.	16aa\JJ	.	.	.	.
8F#\	.	8r	.	16aa\LL	.	4r	4r	.
.	.	.	.	16aa\	.	.	.	.
8F#\J	.	(16ff#\LL	.	16aa\	.	.	.	.
.	.	16dd\JJ)	.	16aa\JJ	.	.	.	.
!	!	!	!	!	!	!	!LO:LB:g=original	!
=44	=44	=44	=44	=44	=44	=44	=44	=44
8G\L	.	8cc#\L	.	16aa\LL	.	2ee\	2ccc#\	.
.	.	.	.	16aa\	.	.	.	.
8G\	.	8a\	.	16aa\	.	.	.	.
.	.	.	.	16aa\JJ	.	.	.	.
8G\	.	8cc#\	.	16aa\LL	.	.	.	.
.	.	.	.	16aa\	.	.	.	.
8G\J	.	8ee\J	.	16aa\	.	.	.	.
.	.	.	.	16aa\JJ	.	.	.	.
8F#\L	.	4dd\	.	16aa\LL	.	4ff#\	4ddd\	.
.	.	.	.	16aa\	.	.	.	.
8F#\	.	.	.	16aa\	.	.	.	.
.	.	.	.	16aa\JJ	.	.	.	.
8F#\	.	8r	.	16aa\LL	.	4r	4r	.
.	.	.	.	16aa\	.	.	.	.
8F#\J	.	16dd\LL	.	16aa\	.	.	.	.
.	.	16ff#\JJ	.	16aa\JJ	.	.	.	.
=45	=45	=45	=45	=45	=45	=45	=45	=45
4F#\	.	16aa\LL	.	16aa\LL	.	00r	00r	.
.	.	16dd\	.	16dd\	.	.	.	.
.	.	16ee\	.	16ee\	.	.	.	.
.	.	16ff#\JJ	.	16ff#\JJ	.	.	.	.
4r	.	16gg\LL	.	16gg\LL	.	.	.	.
.	.	16aa\	.	16aa\	.	.	.	.
.	.	16bb\	.	16bb\	.	.	.	.
.	.	16ccc#\JJ	.	16ccc#\JJ	.	.	.	.
4r	.	4ddd\	.	4ddd\	.	.	.	.
4F#\	.	4f#/	.	4f#/	.	.	.	.
=46	=46	=46	=46	=46	=46	=46	=46	=46
4G\	.	4g/	.	4g/	.	.	.	.
4G#X\	.	4g#X/	.	4g#X/	.	.	.	.
4A\	.	4a/	.	4a/	.	.	.	.
4A#X\	.	4a#X/	.	4a#X/	.	.	.	.
=47	=47	=47	=47	=47	=47	=47	=47	=47
*Xtremolo	*	*	*	*	*	*	*	*
!	!LO:DY:a	!	!	!	!	!	!	!
8B\L	p	1b\	p	2b\	.	.	.	.
8B\	.	.	.	.	.	.	.	.
8B\	.	.	.	.	.	.	.	.
8B\J	.	.	.	.	.	.	.	.
*tremolo	*	*	*	*	*	*	*	*
8B\L	.	.	.	2dd#X\	.	.	.	.
8B\	.	.	.	.	.	.	.	.
8B\	.	.	.	.	.	.	.	.
8B\J	.	.	.	.	.	.	.	.
=48	=48	=48	=48	=48	=48	=48	=48	=48
8B\L	.	(8d#X/L	.	2ff#\	.	.	.	.
8B\	.	8f#/)	.	.	.	.	.	.
8B\	.	(8d#/	.	.	.	.	.	.
8B\J	.	8f#/J)	.	.	.	.	.	.
8B\L	.	8d#/L	.	2aa\	.	.	.	.
8B\	.	8f#/	.	.	.	.	.	.
8B\	.	8d#/	.	.	.	.	.	.
8B\J	.	8f#/J	.	.	.	.	.	.
=49	=49	=49	=49	=49	=49	=49	=49	=49
4E\	.	(8e/L	.	8gg\L	.	1ee\	1gg\	.
.	.	8g/)	.	16ff#\L	.	.	.	.
.	.	.	.	16gg\JJ	.	.	.	.
4r	.	(8e/	.	4ee\	.	.	.	.
.	.	8g/J)	.	.	.	.	.	.
2r	.	(8e/L	.	4r	.	.	.	.
.	.	8g/)	.	.	.	.	.	.
.	.	(8e/	.	(8bb\L	.	.	.	.
.	.	8g/J)	.	8gg\J)	.	.	.	.
!	!	!LO:LB:g=original	!	!	!	!	!	!
=50	=50	=50	=50	=50	=50	=50	=50	=50
!	!	!	!	!	!	!LO:TX:t=P:problem:półnuta z wymazaną caudą	!	!
.	.	.	.	8qqdd/	.	.	.	.
4BB/	.	(8d#X/L	.	8ff#\tL	.	1ff#\	1aa\	.
.	.	8f#/)	.	16ee\L	.	.	.	.
.	.	.	.	16ff#\JJ	.	.	.	.
4r	.	(8d#/)	.	4dd#X\	.	.	.	.
.	.	8f#/J	.	.	.	.	.	.
2r	.	(8d#/L	.	4r	.	.	.	.
.	.	8f#/)	.	.	.	.	.	.
.	.	(8d#/	.	(8aa\L	.	.	.	.
.	.	8f#/J)	.	8ff#\J)	.	.	.	.
!	!	!	!	!LO:LB:g=original	!	!	!	!
=51	=51	=51	=51	=51	=51	=51	=51	=51
4E\	.	8e/L	.	8gg\TL	.	1ee\	1gg\	.
.	.	8g/	.	16ff#\L	.	.	.	.
.	.	.	.	16gg\JJ	.	.	.	.
4r	.	8e/	.	4ee\	.	.	.	.
.	.	8g/J	.	.	.	.	.	.
4r	.	8e/L	.	4r	.	.	.	.
.	.	8g/J	.	.	.	.	.	.
!	!LO:DY:a	!	!LO:DY:t=for	!	!LO:DY:a:t=for	!	!	!
4E\	p	4e/	f	4e/	f	.	.	.
!LO:LB:g=original	!	!	!	!	!	!	!	!
=52	=52	=52	=52	=52	=52	=52	=52	=52
4Fn\	.	4fn/	.	4fn/	.	0r	0r	.
4F#X\	.	4f#X/	.	4f#X/	.	.	.	.
4G\	.	4g/	.	4g/	.	.	.	.
4G#X\	.	4g#X/	.	4g#X/	.	.	.	.
=53	=53	=53	=53	=53	=53	=53	=53	=53
*Xtremolo	*	*	*	*	*	*	*	*
!	!LO:DY:a	!	!	!	!	!	!	!
8A\L	p	1a/	p	2a/	p	.	.	.
8A\	.	.	.	.	.	.	.	.
8A\	.	.	.	.	.	.	.	.
8A\J	.	.	.	.	.	.	.	.
*tremolo	*	*	*	*	*	*	*	*
8A\L	.	.	.	2cc#\	.	.	.	.
8A\	.	.	.	.	.	.	.	.
8A\	.	.	.	.	.	.	.	.
8A\J	.	.	.	.	.	.	.	.
=54	=54	=54	=54	=54	=54	=54	=54	=54
8A\L	.	2cc#\	.	2ee\	.	1r	1r	.
8A\	.	.	.	.	.	.	.	.
8A\	.	.	.	.	.	.	.	.
8A\J	.	.	.	.	.	.	.	.
8A\L	.	2ee\	.	2gg\	.	.	.	.
8A\	.	.	.	.	.	.	.	.
8A\	.	.	.	.	.	.	.	.
8A\J	.	.	.	.	.	.	.	.
=55	=55	=55	=55	=55	=55	=55	=55	=55
4D/	.	(4dd\	.	8ff#\tL	.	1ff#\	1aa\	.
.	.	.	.	16ee\L	.	.	.	.
.	.	.	.	16ff#\JJ	.	.	.	.
4r	.	4f#/)	.	4dd\	.	.	.	.
2r	.	4r	.	4r	.	.	.	.
.	.	8ff#\L	.	(8aa\L	.	.	.	.
.	.	8dd\J	.	8ff#\J)	.	.	.	.
=56	=56	=56	=56	=56	=56	=56	=56	=56
.	.	8qqdd/	.	8qqff#/	.	.	.	.
4A\	.	4.cc#\	.	4.ee\	.	1gg\	1aa\	.
4r	.	.	.	.	.	.	.	.
.	.	8dd\	.	8ff#\	.	.	.	.
4AA/	.	4ee\	.	4gg\	.	.	.	.
4r	.	4ee\	.	4gg\	.	.	.	.
=57	=57	=57	=57	=57	=57	=57	=57	=57
!	!	!	!	!	!	!	!LO:TX:t=P:problem:takty 57-58 zapisane powtórką	!
4D\	.	(4dd\	.	8ff#\tL	.	1ff#\	1aayy\	.
.	.	.	.	16ee\L	.	.	.	.
.	.	.	.	16ff#\JJ	.	.	.	.
4r	.	4f#/)	.	4dd\	.	.	.	.
2r	.	4r	.	4r	.	.	.	.
.	.	(8ff#\L	.	(8aa\L	.	.	.	.
.	.	8dd\J)	.	8ff#\J)	.	.	.	.
=58	=58	=58	=58	=58	=58	=58	=58	=58
.	.	8qdd/	.	8qqff#/	.	.	.	.
4A\	.	4.cc#\	.	4.ee\	.	2.gg\	1aayy\	.
4r	.	.	.	.	.	.	.	.
.	.	8dd\	.	8ff#\	.	.	.	.
4AA/	.	4ee\	.	4gg\	.	.	.	.
4r	.	4ee\	.	4gg\	.	4ee\	.	.
!	!	!LO:LB:g=original	!	!LO:LB:g=original	!	!	!	!
=59	=59	=59	=59	=59	=59	=59	=59	=59
*	*	*^	*	*^	*	*	*	*
*	*	*tremolo	*	*	*	*	*	*	*	*
!	!LO:DY:a	!	!	!	!	!	!	!	!	!
4D\	f	16ff#/LL	16a\LL	.	16ff#/LL	16dd\LL	.	4dd\	4ff#\	.
.	.	16ff#/	16a\	.	16ff#/	16dd\	.	.	.	.
.	.	16ff#/	16a\	.	16ff#/	16dd\	.	.	.	.
.	.	16ff#/JJ	16a\JJ	.	16ff#/JJ	16dd\JJ	.	.	.	.
8r	.	16ff#/LL	16a\LL	.	16ff#/LL	16dd\LL	.	2dd\	2ff#\	.
.	.	16ff#/	16a\	.	16ff#/	16dd\	.	.	.	.
16A\LL	.	16ff#/	16a\	.	16ff#/	16dd\	.	.	.	.
16G\JJ	.	16ff#/JJ	16a\JJ	.	16ff#/JJ	16dd\JJ	.	.	.	.
8F#\L	.	16ff#/LL	16a\LL	.	16ff#/LL	16dd\LL	.	.	.	.
.	.	16ff#/	16a\	.	16ff#/	16dd\	.	.	.	.
8D\	.	16ff#/	16a\	.	16ff#/	16dd\	.	.	.	.
.	.	16ff#/JJ	16a\JJ	.	16ff#/JJ	16dd\JJ	.	.	.	.
8F#\	.	16ff#/LL	16a\LL	.	16ff#/LL	16dd\LL	.	4dd\	4ff#\	.
.	.	16ff#/	16a\	.	16ff#/	16dd\	.	.	.	.
8A\J	.	16ff#/	16a\	.	16ff#/	16dd\	.	.	.	.
.	.	16ff#/JJ	16a\JJ	.	16ff#/JJ	16dd\JJ	.	.	.	.
!LO:LB:g=original	!	!	!	!	!	!	!	!	!	!
=60	=60	=60	=60	=60	=60	=60	=60	=60	=60	=60
4d\	.	16ff#/LL	16dd\LL	.	16aa/LL	16ff#\LL	.	8dd\L	8ff#\L	.
.	.	16ff#/	16dd\	.	16aa/	16ff#\	.	.	.	.
.	.	16ff#/	16dd\	.	16aa/	16ff#\	.	8a\	8dd\	.
.	.	16ff#/JJ	16dd\JJ	.	16aa/JJ	16ff#\JJ	.	.	.	.
8r	.	16ff#/LL	16dd\LL	.	16aa/LL	16ff#\LL	.	8dd\	8ff#\	.
.	.	16ff#/	16dd\	.	16aa/	16ff#\	.	.	.	.
16A\LL	.	16ff#/	16dd\	.	16aa/	16ff#\	.	8ff#\J	8aa\J	.
16G\JJ	.	16ff#/JJ	16dd\JJ	.	16aa/JJ	16ff#\JJ	.	.	.	.
8F#\L	.	16ff#/LL	16dd\LL	.	16aa/LL	16ff#\LL	.	2ff#\	2aa\	.
.	.	16ff#/	16dd\	.	16aa/	16ff#\	.	.	.	.
8D\	.	16ff#/	16dd\	.	16aa/	16ff#\	.	.	.	.
.	.	16ff#/JJ	16dd\JJ	.	16aa/JJ	16ff#\JJ	.	.	.	.
8F#\	.	16ff#/LL	16dd\LL	.	16aa/LL	16ff#\LL	.	.	.	.
.	.	16ff#/	16dd\	.	16aa/	16ff#\	.	.	.	.
8A\J	.	16ff#/	16dd\	.	16aa/	16ff#\	.	.	.	.
.	.	16ff#/JJ	16dd\JJ	.	16aa/JJ	16ff#\JJ	.	.	.	.
=61	=61	=61	=61	=61	=61	=61	=61	=61	=61	=61
*	*	*	*tremolo	*	*	*tremolo	*	*	*	*
4d\	.	16aa/LL	16ff#\LL	.	16ddd/LL	16ff#\LL	.	8ff#\L	8aa\L	.
.	.	16aa/	16ff#\	.	16ddd/	16ff#\	.	.	.	.
.	.	16aa/	16ff#\	.	16ddd/	16ff#\	.	8dd\	8ff#\	.
.	.	16aa/JJ	16ff#\JJ	.	16ddd/JJ	16ff#\JJ	.	.	.	.
8r	.	16aa/LL	16ff#\LL	.	16ddd/LL	16ff#\LL	.	8ff#\	8aa\	.
.	.	16aa/	16ff#\	.	16ddd/	16ff#\	.	.	.	.
16A\LL	.	16aa/	16ff#\	.	16ddd/	16ff#\	.	8aa\J	8ddd\J	.
16G\JJ	.	16aa/JJ	16ff#\JJ	.	16ddd/JJ	16ff#\JJ	.	.	.	.
8F#\L	.	16aa/LL	16ff#\LL	.	16ddd/LL	16ff#\LL	.	2ff#\	2ddd\	.
.	.	16aa/	16ff#\	.	16ddd/	16ff#\	.	.	.	.
8D\	.	16aa/	16ff#\	.	16ddd/	16ff#\	.	.	.	.
.	.	16aa/JJ	16ff#\JJ	.	16ddd/JJ	16ff#\JJ	.	.	.	.
8F#\	.	16aa/LL	16ff#\LL	.	16ddd/LL	16ff#\LL	.	.	.	.
.	.	16aa/	16ff#\	.	16ddd/	16ff#\	.	.	.	.
8A\J	.	16aa/	16ff#\	.	16ddd/	16ff#\	.	.	.	.
.	.	16aa/JJ	16ff#\JJ	.	16ddd/JJ	16ff#\JJ	.	.	.	.
*	*	*	*	*	*Xtremolo	*	*	*	*	*
*Xtremolo	*	*Xtremolo	*Xtremolo	*	*	*	*	*	*	*
*	*	*v	*v	*	*	*	*	*	*	*
*	*	*	*	*v	*v	*	*	*	*
=62	=62	=62	=62	=62	=62	=62	=62	=62
8D\L	.	16ddd\LL	.	16ddd\LL	.	2ff#\	1ddd\	.
.	.	16ccc#\	.	16ccc#\	.	.	.	.
8D\	.	16bb\	.	16bb\	.	.	.	.
.	.	16aa\JJ	.	16aa\JJ	.	.	.	.
8D\	.	16gg\LL	.	16gg\LL	.	.	.	.
.	.	16ff#\	.	16ff#\	.	.	.	.
8D\J	.	16ee\	.	16ee\	.	.	.	.
.	.	16dd\JJ	.	16dd\JJ	.	.	.	.
*tremolo	*	*	*	*	*	*	*	*
8F#\L	.	16ddd\LL	.	16ddd\LL	.	2aa\	.	.
.	.	16ccc#\	.	16ccc#\	.	.	.	.
8F#\	.	16bb\	.	16bb\	.	.	.	.
.	.	16aa\JJ	.	16aa\JJ	.	.	.	.
8F#\	.	16gg\LL	.	16gg\LL	.	.	.	.
.	.	16ff#\	.	16ff#\	.	.	.	.
8F#\J	.	16ee\	.	16ee\	.	.	.	.
.	.	16dd\JJ	.	16dd\JJ	.	.	.	.
=63	=63	=63	=63	=63	=63	=63	=63	=63
8G\L	.	2G/ 2g/	.	2G/ 2g/	.	2gg\	1bb\	.
8G\	.	.	.	.	.	.	.	.
8G\	.	.	.	.	.	.	.	.
8G\J	.	.	.	.	.	.	.	.
8G\L	.	2bb\	.	2bb\	.	2ee\	.	.
8G\	.	.	.	.	.	.	.	.
8G\	.	.	.	.	.	.	.	.
8G\J	.	.	.	.	.	.	.	.
=64	=64	=64	=64	=64	=64	=64	=64	=64
4F#\	.	8aa\L	.	8aa\L	.	4ff#\	4aa\	.
.	.	8ddd\	.	8ddd\	.	.	.	.
4r	.	8aa\	.	8aa\	.	4r	4r	.
.	.	8ff#\J	.	8ff#\J	.	.	.	.
!	!	!	!	!	!	!LO:LB:g=original	!	!
2r	.	8dd\L	.	8dd\L	.	2r	2r	.
.	.	8a\J	.	8a\J	.	.	.	.
.	.	8f#/L	.	8f#/L	.	.	.	.
.	.	8d/J	.	8d/J	.	.	.	.
=65	=65	=65	=65	=65	=65	=65	=65	=65
!	!	!	!	!	!	!	!LO:TX:t=P:problem:między półnutami kreska taktowa	!
8AA/L	.	16A/LL	.	2A/	.	2ff#\	2ddd\	.
.	.	16d/	.	.	.	.	.	.
8AA/	.	16f#/	.	.	.	.	.	.
.	.	16d/JJ	.	.	.	.	.	.
8AA/	.	16f#/LL	.	.	.	.	.	.
.	.	16d/	.	.	.	.	.	.
8AA/J	.	16f#/	.	.	.	.	.	.
.	.	16d/JJ	.	.	.	.	.	.
8AA/L	.	16A/LL	.	2ee\T	.	2ee\	2ccc#\	.
.	.	16c#/	.	.	.	.	.	.
8AA/	.	16e/	.	.	.	.	.	.
.	.	16c#/JJ	.	.	.	.	.	.
!	!	!LO:LB:g=original	!	!	!	!	!	!
8AA/	.	16e/LL	.	.	.	.	.	.
.	.	16c#/	.	.	.	.	.	.
8AA/J	.	16e/	.	.	.	.	.	.
.	.	16c#/JJ	.	.	.	.	.	.
*Xtremolo	*	*	*	*	*	*	*	*
=66	=66	=66	=66	=66	=66	=66	=66	=66
4D\	.	4d/	.	4d/ 4a/ 4ff#/	.	4ff#\	4ddd\	.
8r	.	8r	.	8r	.	8r	8r	.
16A\LL	.	16a/LL	.	16a/LL	.	16aa\LL	16aa\LL	.
16G\JJ	.	16g/JJ	.	16g/JJ	.	16gg\JJ	16gg\JJ	.
!	!	!	!	!LO:LB:g=original	!	!	!LO:LB:g=original	!
8F#\L	.	8f#/L	.	8f#/L	.	8ff#\L	8ff#\L	.
8D\	.	8d/	.	8d/	.	8dd\	8dd\	.
8F#\	.	8f#/	.	8f#/	.	8ff#\	8ff#\	.
8A\J	.	8a/J	.	8a/J	.	8aa\J	8aa\J	.
=67	=67	=67	=67	=67	=67	=67	=67	=67
4D\	.	4d/ 4a/	.	4d/ 4a/ 4ff#/	.	4ff#\	4ddd\	.
4r	.	4r	.	4r	.	4r	4r	.
2r	.	2r	.	2r	.	2r	2r	.
!	!	!	!	!	!	!LO:TX:b:i:t=Andante Tacet	!LO:TX:b:i:t=Andante Tace	!
==:||:;;	==:||:;;	==:||:;	==:||:;;	==:||:;	==	==:||:;;	==:||:;;	==
*-	*-	*-	*-	*-	*-	*-	*-	*-
!!!system-decoration: [(s1,s2,s3,s4,s5)]
!!!EED: Leszek Kubiak
!!!EST: 2020-10-15
!!!ENC: Mateusz Solarz
!!!END: 2020-06-04
